!!!OTL: UM DEINETWEGEN BIN ICH HIER
!!!ARE: Europa, Mitteleuropa, Deutschland, Sachsen
!!!SCT: Z0314
!!!YEM: Copyright 1995, estate of Helmut Schaffrath.
**kern
*ICvox
*Ivox
*M6/8
*k[f#]
*G:
{8dd
=1
4b
8a
4g
8ee
=2
4cc
8b
4a}
{8dd
=3
4b
8g
4a
8d
=4
8.g
16a
16b
16a
4g}
{8dd
=5
4b
8a
4g
8ee
=6
4cc
8b
4a}
{8dd
=7
4b
8g
4a
8d
=8
8.g
16a
16b
16a
4g}
{8d
=9
4a
8b
4cc
8b
=10
16a
16g
16a
16g
16f#
16e
4d}
{8dd
=11
4b
8g
4a
8d
=12
8.g
16a
16b
16a
4g}
{8d
=13
4a
8b
4cc
8b
=14
16a
16g
16a
16g
16f#
16e
4d}
{8dd
=15
4b
8g
4a
8d
=16
8.g
16a
16b
16a
4g}
{8d
=17
4a
8b
4cc
8b
=18
16a
16g
16a
16g
16f#
16e
4d}
{8dd
=19
4b
8g
4a
8d
=20
8.g
16a
16b
16a
4g}
{8d
=21
4a
8b
4cc
8b
=22
16a
16g
16a
16g
16f#
16e
4d}
{8dd
=23
4b
8g
4a
8d
=24
8.g
16a
16b
16a
4g}
==
!!!AGN: Lyrisches Lied, Romanze
!!!ONB: ESAC (Essen Associative Code) Database: ZUCCAL
!!!AMT: compound duple
!!!AIN: vox
!!!EED: Helmut Schaffrath
!!!EEV: 1.0
*-
